assets/images/logo-nivea.svg

<svg fill="none" height="500" viewBox="0 0 500 500" width="500" xmlns="http://www.w3.org/2000/svg"><path clip-rule="evenodd" d="m498.709 250.301c.004 49.189-14.579 97.275-41.904 138.176s-66.165 72.781-111.609 91.607c-45.444 18.827-95.45 23.755-143.694 14.161s-92.56-33.279-127.3437-68.059c-34.7833-34.781-58.4717-79.095-68.06943-127.339-9.59777-48.243-4.67385-98.249 14.14913-143.695 18.8229-45.445 50.6994-84.2876 91.598-111.616 40.899-27.3284 88.984-41.91491 138.173-41.91491 137.36 0 248.7 111.34991 248.7 248.69991" fill="#000" fill-rule="evenodd"/><g fill="#fff"><path clip-rule="evenodd" d="m339.322 230.21h-26.08v11.63l26.08-.02v15.72h-26.08v12.91h26.08v21.67h-53.17v-82.97h53.17z" fill-rule="evenodd"/><path d="m395.916 202.319c-16.82 29.67-49.9 89.8-49.9 89.8h28.35l4.6-9.03h33.86l4.48 9.03h28.55zm-10.38 67.06c0 .06 10.38-21.28 10.38-21.28s10.18 21.34 10.18 21.28z"/><path clip-rule="evenodd" d="m234.183 246.331 18.6-37.18h28.92c.1 0-47.52 89.14-47.52 89.14l-47.45-89.14h28.94s17.04 34.59 18.51 37.18zm-51.9 45.8h-27.11v-82.98s27.12.1 27.12 0v82.97zm-78.75-50.88v-32.11h27.12v89.15l-44.0399-38.31v32.14h-27.16v-89.26z" fill-rule="evenodd"/></g></svg>

<svg width="500" height="500" viewBox="0 0 500 500" fill="none" xmlns="http://www.w3.org/2000/svg">
<path fill-rule="evenodd" clip-rule="evenodd" d="M498.709 250.301C498.713 299.49 484.13 347.576 456.805 388.477C429.48 429.378 390.64 461.258 345.196 480.084C299.752 498.911 249.746 503.839 201.502 494.245C153.258 484.651 108.942 460.966 74.1583 426.186C39.375 391.405 15.6866 347.091 6.08887 298.847C-3.5089 250.604 1.41502 200.598 20.238 155.152C39.0609 109.707 70.9374 70.8644 111.836 43.536C152.735 16.2076 200.82 1.62109 250.009 1.62109C387.369 1.62109 498.709 112.971 498.709 250.321" fill="black"/>
<path fill-rule="evenodd" clip-rule="evenodd" d="M339.322 230.21H313.242V241.84L339.322 241.82V257.54H313.242V270.45H339.322V292.12H286.152V209.15H339.322V230.21Z" fill="white"/>
<path d="M395.916 202.319C379.096 231.989 346.016 292.119 346.016 292.119H374.366L378.966 283.089H412.826L417.306 292.119H445.856L395.916 202.319ZM385.536 269.379C385.536 269.439 395.916 248.099 395.916 248.099C395.916 248.099 406.096 269.439 406.096 269.379H385.536Z" fill="white"/>
<path fill-rule="evenodd" clip-rule="evenodd" d="M234.183 246.331L252.783 209.151H281.703C281.803 209.151 234.183 298.291 234.183 298.291L186.733 209.151H215.673C215.673 209.151 232.713 243.741 234.183 246.331ZM182.283 292.131H155.173V209.151C155.173 209.151 182.293 209.251 182.293 209.151V292.121L182.283 292.131ZM103.533 241.251V209.141H130.653V298.291L86.6131 259.981V292.121H59.4531V202.861L103.533 241.251Z" fill="white"/>
</svg>
